!!!COM: Haydn, Franz Joseph
!!!OPR: String Quartet in E-flat Major
!!!ONM: Opus 1, No. 0
!!!OTL:
!!!OMV: 1
!!!SCT: H II:6
!!!SCA: Thematisch-bibliographisches Werkevererzeichnis (A. van Hoboken)
!!!YOR: Bremner Edition, 1772
!!!EED: Frances Bennion
!!!ENC: Frances Bennion
!!!CDT: 1732/3/31/-1809/5/31/
!!!OCY: Österreich
!!!YEC: Copyright (c) 1994, 2000 Center for Computer Assisted Research in the Humanities
!!!YEM: Rights to all derivative editions reserved.
!!!YEM: Refer to licensing agreement for further details.
!!!YEN: United States of America
**kern	**kern	**kern	**kern
*k[b-e-a-]	*k[b-e-a-]	*k[b-e-a-]	*k[b-e-a-]
*E-:	*E-:	*E-:	*E-:
*clefF	*clefF	*clefC3	*clefF4
*M2/4	*M2/4	*M2/4	*M2/4
*tb32	*tb32	*tb32	*tb32
=1	=1	=1	=1
4e-	2r	2r	2r
8.f	.	.	.
32e-	.	.	.
32f	.	.	.
=2	=2	=2	=2
4g	2r	2r	2r
4r	.	.	.
=3	=3	=3	=3
4g	4e-	2r	2r
8.a-	8.f	.	.
32g	32e-	.	.
32a-	32f	.	.
=4	=4	=4	=4
4b-	4g	2r	2r
4r	4r	.	.
=5	=5	=5	=5
[2ee-	4g	4e-	2r
.	8.a-	8.f	.
.	32g	32e-	.
.	32a-	32f	.
=6	=6	=6	=6
8ee-]	4b-	4g	2r
8dd	.	.	.
8ee-	4r	4r	.
8ff	.	.	.
=7	=7	=7	=7
8gg	2r	4e-	4E-
8r	.	.	.
8aa-	.	8.d	8.F
8r	.	.	.
.	.	16c	32E-
.	.	.	32F
=8	=8	=8	=8
8bb-	2r	4B-	4G
4r	.	.	.
.	.	4r	4r
8eee-	.	.	.
=9	=9	=9	=9
8bb-	2r	2r	2r
8eee-	.	.	.
8bb-	.	.	.
8eee-	.	.	.
=10	=10	=10	=10
8bb-	4r	4r	4r
8r	.	.	.
8e-	8G	8c	8C
8r	8r	8r	8r
=11	=11	=11	=11
8f	8c	8A-	8AA-
8r	8r	8r	8r
8d	8A-	8F	8BB-
8r	8r	8r	8r
=12	=12	=12	=12
8e-	8G	8E-	8E-
4.r	4.r	4.r	4.r
=13	=13	=13	=13
8a-	8f	8c	8AA-
8r	8r	8r	8r
8f	8d	8A-	8BB-
8r	8r	8r	8r
=14	=14	=14	=14
4e-	4e-	4G	4E-
4r	4r	4r	4r
=15	=15	=15	=15
16d	4b- 4d	4B- 4d	8r
16b-	.	.	.
16ff	.	.	8B-
16b-	.	.	.
8ff	8r	8r	8d
8r	8dd	8b-	8B-
=16	=16	=16	=16
16A	8ee-	8a	8r
16f	.	.	.
16ee-	4r	4r	8F
16f	.	.	.
8ee-	.	.	8A
8r	8ee-	8a	8F
=17	=17	=17	=17
16B-	8dd	8b-	8r
16f	.	.	.
16dd	4r	4r	8BB-
16f	.	.	.
8dd	.	.	8D
8r	8dd	8b-	8BB-
=18	=18	=18	=18
16A	8cc	8a	8r
16f	.	.	.
16cc	4r	4r	8F
16f	.	.	.
8cc	.	.	8A
8r	8cc	8f	8F
=19	=19	=19	=19
16d	2dd	2f	2BB-
16b-	.	.	.
16ff	.	.	.
16b-	.	.	.
8ff	.	.	.
8r	.	.	.
=20	=20	=20	=20
16A	2ee-	2A	2F
16f	.	.	.
16ee-	.	.	.
16f	.	.	.
8ee-	.	.	.
8r	.	.	.
=21	=21	=21	=21
16B-	2dd	4.F	2B-
16f	.	.	.
16dd	.	.	.
16f	.	.	.
8dd	.	.	.
8r	.	8G	.
=22	=22	=22	=22
16A	2cc	2A	2F
16f	.	.	.
16cc	.	.	.
16f	.	.	.
8cc	.	.	.
8r	.	.	.
=23	=23	=23	=23
4.d 4.b-	4b-	4B-	8BB-
.	.	.	8B-
.	4r	4r	8A
8bb-	.	.	8G
=24	=24	=24	=24
8aa	2r	2r	8F
8gg	.	.	8E-
8ff	.	.	8D
8ee-	.	.	8C
=25	=25	=25	=25
8dd	4.r	4.r	4BB-
8cc	.	.	.
8b-	.	.	4r
8r	8b-	8g	.
=26	=26	=26	=26
2r	8a	8f	2r
.	8g	8e-	.
.	8f	8d	.
.	8e-	8c	.
=27	=27	=27	=27
4.r	8d	8B-	4.r
.	8c	8A	.
.	8B-	8B-	.
8ddd	8r	8r	8B-
=28	=28	=28	=28
8ccc	2r	2r	8A
8bb-	.	.	8G
8aa	.	.	8F
8gg	.	.	8E-
=29	=29	=29	=29
8ff	4.r	4.r	8D
8ee-	.	.	8C
8dd	.	.	8BB-
8r	8f	8d	8r
=30	=30	=30	=30
2r	8g	8e-	2r
.	8a	8f	.
.	8b-	8g	.
.	8cc	8a	.
=31	=31	=31	=31
4r	8dd	8b-	4r
.	8ee-	8cc	.
16bb-	4ff	8dd	8D
16bb-	.	.	.
16bb-	.	8b-	8B-
16bb-	.	.	.
=32	=32	=32	=32
16e-	16e-	8e-	8E-
16e-	16e-	.	.
16e-	16e-	8b-	8B-
16e-	16e-	.	.
16f	16f	8f	8F
16f	16f	.	.
16f	16f	8b-	8B-
16f	16f	.	.
=33	=33	=33	=33
8g	16g	8g	8G
.	16g	.	.
8r	16g	8b-	8B-
.	16g	.	.
8ff 8d 8b-	16b-	16f	8D
.	16b-	16f	.
8r	16b-	16f	8D
.	16b-	16f	.
=34	=34	=34	=34
8gg 8b- 8e-	16b-	16e-	8E-
.	16b-	16e-	.
8r	16b-	16e-	8E-
.	16b-	16e-	.
8e- 8a 8c	16a	16c	8F
.	16a	16c	.
8r	16a	16c	8F
.	16a	16c	.
=35	=35	=35	=35
4B- 4f 4b-	4b-	4B-	8BB-
.	.	.	8B-
4r	4r	4r	4BB-
=36	=36	=36	=36
4ff	4dd	2r	2r
8.ee-	8.cc	.	.
32dd	32b-	.	.
32ee-	32cc	.	.
=37	=37	=37	=37
4dd	4b-	4f	4d
4r	4r	8.e-	8.c
.	.	32d	32B-
.	.	32e-	32c
=38	=38	=38	=38
4bb-	4gg	4d	4B-
8.aa-	8.ff	4r	4r
32gg	32ee	.	.
32aa-	32ff	.	.
=39	=39	=39	=39
4gg	4ee-	4g	4E-
4r	4r	8.a-	8.F
.	.	32g	32E-
.	.	32a-	32F
=40	=40	=40	=40
4ee-	2e-	4b-	4G
8.dd-	.	4B-	4GG
32cc	.	.	.
32dd-	.	.	.
=41	=41	=41	=41
4cc	16A-	8A-	8AA-
.	16e-	.	.
.	16cc	8c	8A-
.	16e-	.	.
8r	8cc	8e-	8c
8ccc	8r	8c	8A-
=42	=42	=42	=42
8bb-	16G	8r	8r
.	16e-	.	.
8gg	16dd-	8g	8E-
.	16e-	.	.
8ee-	8dd-	8b-	8G
8dd-	8r	8g	8E-
=43	=43	=43	=43
8cc	16A-	8r	8r
.	16e-	.	.
8ee-	16cc	8a-	8AA-
.	16e-	.	.
8r	8cc	8e-	8C
8ccc	8r	8c	8AA-
=44	=44	=44	=44
8bb-	16G	8r	8r
.	16e-	.	.
8gg	16dd-	8g	8E-
.	16e-	.	.
8ee-	8dd-	8b-	8G
8dd-	8r	8g	8E-
=45	=45	=45	=45
8cc	16A-	8r	8r
.	16e-	.	.
8ee-	16cc	8a-	8AA-
.	16e-	.	.
8r	8cc	8e-	8C
8aa-	8r	8c	8AA-
=46	=46	=46	=46
8gg	16e	8r	8r
.	16cc	.	.
8ee	16gg	8e	8C
.	16cc	.	.
8cc	8gg	8g	8E
8b-	8r	8e	8C
=47	=47	=47	=47
8a-	16f	8r	8r
.	16cc	.	.
8cc	16aa-	8a-	8F
.	16cc	.	.
8r	8aa-	8cc	8A-
8aa-	8r	8a-	8F
=48	=48	=48	=48
8aa-	16d	8r	8r
.	16b-	.	.
8ff	16aa-	8d	8BB-
.	16b-	.	.
8dd	8aa-	8f	8D
8a-	8r	8d	8BB-
=49	=49	=49	=49
8g	16e-	8r	8r
.	16b-	.	.
8ee-	16gg	8g	8E-
.	16b-	.	.
8r	8gg	8b-	8G
8bb-	8r	8g	8E-
=50	=50	=50	=50
8ccc	16A-	8r	8r
.	16f	.	.
8aa-	16cc	8cc	8A-
.	16f	.	.
8ff	8cc	8cc	8AA-
8ee-	8r	8c	8AA
=51	=51	=51	=51
8dd	16B-	4B-	4BB-
.	16d	.	.
8bb-	16b-	.	.
.	16d	.	.
8r	8b-	8r	8r
8b-	8b-	8b-	8B-
=52	=52	=52	=52
8a-	8a-	8a-	8A-
8g	8g	8g	8G
8f	8f	8f	8F
8e-	8e-	8e-	8E-
=53	=53	=53	=53
8B-	8B-	8B-	8BB-
8b-	8b-	8b-	8B-
4r	4r	4r	4r
=54	=54	=54	=54
2bb-	4e-	4e-	4E-
.	8.f	4d	4BB-
.	32e-	.	.
.	32f	.	.
=55	=55	=55	=55
8bb-	4g	4e-	4EE-
8eee-	.	.	.
8bb-	4r	4r	4r
8eee-	.	.	.
=56	=56	=56	=56
2bb-	4f	4d	4BB-
.	8.g	8.e-	4r
.	32f	32d	.
.	32g	32e-	.
=57	=57	=57	=57
8bb-	4a-	4f	4BB-
8ddd	.	.	.
8bb-	4r	4r	4r
8ddd	.	.	.
=58	=58	=58	=58
2bb-	4g	4e-	4E-
.	8.a-	8.f	4r
.	32g	32e-	.
.	32a-	32f	.
=59	=59	=59	=59
8bb-	4b-	4g	4E-
8ddd-	.	.	.
8ddd-	4r	4r	4r
8ddd-	.	.	.
=60	=60	=60	=60
8ccc	4e-	4a-	4A-
8ee-	.	.	.
8ee-	4r	4r	4r
8ee-	.	.	.
=61	=61	=61	=61
8bb-	4e-	4g	4G
8ee-	.	.	.
8ee-	4r	4e-	4E-
8ee-	.	.	.
=62	=62	=62	=62
8dd	4a-	2B-	2B-
8ff	.	.	.
8ee-	4g	.	.
8b-	.	.	.
=63	=63	=63	=63
8dd	4a-	2B-	2BB-
8ff	.	.	.
8ee-	4g	.	.
8b-	.	.	.
=64	=64	=64	=64
8a-	4d	4B-	4BB-
8f	.	.	.
8g	4e-	4B-	4BB-
8e-	.	.	.
=65	=65	=65	=65
4B-	4B-	4B-	4BB-
8e-	8e-	8e-	8E-
8r	8r	8r	8r
=66	=66	=66	=66
8a-	8d	8f	8F
8r	8r	8r	8r
8g	8e-	8e-	8E-
8r	8r	8r	8r
=67	=67	=67	=67
4f	4d	4B-	4B-
4r	4r	4r	4r
=68	=68	=68	=68
16d	4.r	4.r	8r
16b-	.	.	.
16aa-	.	.	8B-
16b-	.	.	.
8aa-	.	.	8d
8r	8aa-	8dd	8B-
=69	=69	=69	=69
16e-	8gg	8ee-	8r
16b-	.	.	.
16gg	4r	4r	8E-
16b-	.	.	.
8gg	.	.	8G
8r	8gg	8b-	8E-
=70	=70	=70	=70
16B-	8ff	8a-	8r
16f	.	.	.
16dd	4r	4r	8BB-
16f	.	.	.
8dd	.	.	8D
8r	8ff	8a-	8BB-
=71	=71	=71	=71
16B-	8ee-	8g	8r
16g	.	.	.
16ee-	4r	4r	8EE-
16g	.	.	.
8ee-	.	.	8GG
8r	8ee-	8g	8EE-
=72	=72	=72	=72
16d	2dd	2a-	2BB-
16b-	.	.	.
16aa-	.	.	.
16b-	.	.	.
8aa-	.	.	.
8r	.	.	.
=73	=73	=73	=73
16e-	2ee-	2g	2E-
16b-	.	.	.
16gg	.	.	.
16b-	.	.	.
8gg	.	.	.
8r	.	.	.
=74	=74	=74	=74
16B-	2a-	2d	2B-
16f	.	.	.
16dd	.	.	.
16f	.	.	.
8dd	.	.	.
8r	.	.	.
=75	=75	=75	=75
16B-	2g	2e-	2E-
16g	.	.	.
16ee-	.	.	.
16g	.	.	.
8ee-	.	.	.
8r	.	.	.
=76	=76	=76	=76
4.G 4.e-	4e- 4G	4e-	8E-
.	.	.	8e-
.	4r	4r	8d
8ee-	.	.	8c
=77	=77	=77	=77
8dd	2r	2r	8B-
8cc	.	.	8A-
8b-	.	.	8G
8a-	.	.	8F
=78	=78	=78	=78
8g	4.r	4.r	4E-
8f	.	.	.
8e-	.	.	4r
8r	8e-	8c	.
=79	=79	=79	=79
2r	8d	8B-	2r
.	8c	8A-	.
.	8B-	8G	.
.	8A-	8F	.
=80	=80	=80	=80
4.r	8G	8E-	4.r
.	8A-	8F	.
.	8B-	8G	.
8gg	8r	8r	8e-
=81	=81	=81	=81
8ff	2r	2r	8d
8ee-	.	.	8c
8dd	.	.	8B-
8cc	.	.	8A-
=82	=82	=82	=82
8b-	4.r	4.r	8G
8a-	.	.	8F
8g	.	.	8E-
8r	8B-	8G	8r
=83	=83	=83	=83
2r	8c	8A-	2r
.	8d	8B-	.
.	8e-	8c	.
.	8f	8d	.
=84	=84	=84	=84
4r	8g	8e-	4r
.	8a-	8f	.
16ee-	4b-	8g	8GG
16ee-	.	.	.
16ee-	.	8e-	8E-
16ee-	.	.	.
=85	=85	=85	=85
16A-	16A-	8A-	8AA-
16A-	16A-	.	.
16A-	16A-	8e-	8E-
16A-	16A-	.	.
16B-	16B-	8B-	8BB-
16B-	16B-	.	.
16B-	16B-	8e-	8E-
16B-	16B-	.	.
=86	=86	=86	=86
8c	16c	8c	8C
.	16c	.	.
8r	16c	8e-	8E-
.	16c	.	.
8b- 8G 8e-	16e-	16B-	8GG
.	16e-	16B-	.
8r	16e-	16B-	8GG
.	16e-	16B-	.
=87	=87	=87	=87
8e- 8cc 8A-	16e-	16A-	8AA-
.	16e-	16A-	.
8r	16e-	16A-	8AA-
.	16e-	16A-	.
8d 8B-	16d	16F	8BB-
.	16d	16F	.
8r	16d	16F	8BB-
.	16d	16F	.
=88	=88	=88	=88
4G 4e-	4e-	4E-	4EE-
4r	4r	4r	4r
=89	=89	=89	=89
4b-	4g	2B-	2BB-
8.a-	8.f	.	.
32g	32e-	.	.
32a-	32f	.	.
=90	=90	=90	=90
4g	4e-	4c	4C
4r	4r	4r	4r
=91	=91	=91	=91
8f 8A-	8c	8A-	8AA-
8r	8r	8r	8r
8d 8B-	8d	8F	8BB-
8r	8r	8r	8r
=92	=92	=92	=92
4e- 4G	4G 4e-	4E-	4EE-
4r	4r	4r	4r
==	==	==	==
*-	*-	*-	*-
!!!RWG1: This file contains only pitch and duration data.
!!!RWG2: Transposing instruments are not transposed.
!!!RWG3: Spines may have incompatible meters.
!!!RWG4: Durations of rests and tied notes may be interpreted.
!!!RWG: Key is interpreted using the Humdrum key tool.
!!!GTL: 10 Divertimentos
!!!AFT: stage1
!!!END: 1997/04/15
!!format changes:
!!content changes:
!!public access: complete
!!!KEY: 3930744880
!!!EMD: Converted from MuseData to Humdrum Dec 16, 2000, by Andreas Kornstaedt using muse2kern.
